src/icons/sun.svg

<svg width="24" height="24" viewBox="0 0 24 24" fill="none" xmlns="http://www.w3.org/2000/svg"><path fill-rule="evenodd" clip-rule="evenodd" d="M12 16C14.2091 16 16 14.2091 16 12C16 9.79086 14.2091 8 12 8C9.79086 8 8 9.79086 8 12C8 14.2091 9.79086 16 12 16ZM12 18C15.3137 18 18 15.3137 18 12C18 8.68629 15.3137 6 12 6C8.68629 6 6 8.68629 6 12C6 15.3137 8.68629 18 12 18Z" fill="currentColor" /><path fill-rule="evenodd" clip-rule="evenodd" d="M11 0H13V4.06189C12.6724 4.02104 12.3387 4 12 4C11.6613 4 11.3276 4.02104 11 4.06189V0ZM7.0943 5.68018L4.22173 2.80761L2.80752 4.22183L5.6801 7.09441C6.09071 6.56618 6.56608 6.0908 7.0943 5.68018ZM4.06189 11H0V13H4.06189C4.02104 12.6724 4 12.3387 4 12C4 11.6613 4.02104 11.3276 4.06189 11ZM5.6801 16.9056L2.80751 19.7782L4.22173 21.1924L7.0943 18.3198C6.56608 17.9092 6.09071 17.4338 5.6801 16.9056ZM11 19.9381V24H13V19.9381C12.6724 19.979 12.3387 20 12 20C11.6613 20 11.3276 19.979 11 19.9381ZM16.9056 18.3199L19.7781 21.1924L21.1923 19.7782L18.3198 16.9057C17.9092 17.4339 17.4338 17.9093 16.9056 18.3199ZM19.9381 13H24V11H19.9381C19.979 11.3276 20 11.6613 20 12C20 12.3387 19.979 12.6724 19.9381 13ZM18.3198 7.0943L21.1923 4.22183L19.7781 2.80762L16.9056 5.6801C17.4338 6.09071 17.9092 6.56608 18.3198 7.0943Z" fill="currentColor" /></svg>

<svg xmlns="http://www.w3.org/2000/svg" width="24" height="24" fill="none"><path fill="currentColor" fill-rule="evenodd" d="M12 16a4 4 0 100-8 4 4 0 000 8zm0 2a6 6 0 100-12 6 6 0 000 12zM11 0h2v4.06a8.08 8.08 0 00-2 0V0zM7.1 5.68L4.21 2.81 2.81 4.22 5.68 7.1c.41-.52.89-1 1.41-1.41zM4.05 11H0v2h4.06a8.08 8.08 0 010-2zm1.62 5.9l-2.87 2.88 1.41 1.41 2.87-2.87c-.52-.41-1-.89-1.41-1.41zM11 19.95V24h2v-4.06a8.07 8.07 0 01-2 0zm5.9-1.62l2.88 2.87 1.41-1.41-2.87-2.87c-.41.52-.89 1-1.41 1.41zM19.95 13H24v-2h-4.06a8.07 8.07 0 010 2zm-1.62-5.9l2.87-2.88-1.41-1.41-2.87 2.87c.52.41 1 .89 1.41 1.41z" clip-rule="evenodd"/></svg>
